themes/asg/static/images/sponsors/facebook.svg

<svg width="157" height="60" viewBox="0 0 157 60" fill="none" xmlns="http://www.w3.org/2000/svg">
<path fill-rule="evenodd" clip-rule="evenodd" d="M157 0.48584H0V59.5064H157V0.48584ZM82.5834 29.792C81.5368 29.792 80.8041 30.1059 79.9668 30.5245V38.4776C80.6994 38.5823 81.1181 38.5823 81.8507 38.5823C84.3627 38.5823 84.6768 37.4312 84.6768 35.8615V32.0942C84.7814 30.7338 84.3628 29.792 82.5834 29.792ZM65.8368 29.3734C64.0574 29.3734 63.6387 30.3152 63.6387 31.571V32.1988H67.9301V31.571C67.9301 30.3152 67.6161 29.3734 65.8368 29.3734ZM33.2854 37.6405C33.2854 38.5823 33.7041 39.1055 34.7507 39.1055C35.7974 39.1055 36.4254 38.7916 37.1581 38.373V36.4894H34.8554C33.8087 36.4894 33.2854 36.6987 33.2854 37.6405ZM98.9114 29.792C97.1321 29.792 96.5041 30.7338 96.5041 31.9896V36.3847C96.5041 37.5358 97.1321 38.5823 98.9114 38.5823C100.691 38.5823 101.319 37.6405 101.319 36.3847V31.9896C101.319 30.7338 100.691 29.792 98.9114 29.792ZM24.7028 42.5589H19.5741V30.1059H16.9574V25.8154H19.5741V23.1993C19.5741 19.6413 21.0394 17.5483 25.1214 17.5483H28.5754V21.8389H26.3774C24.8074 21.8389 24.7028 22.4667 24.7028 23.5132V25.7108H28.5754L28.1567 30.0013H24.7028V42.5589ZM42.2867 42.5589H38.1001L37.8907 41.5124C35.9021 42.5589 34.1228 42.7681 32.9714 42.7681C29.8314 42.7681 28.1567 40.6752 28.1567 37.7451C28.1567 34.2918 30.1454 33.036 33.5994 33.036H37.1581V32.3035C37.1581 30.5245 36.9487 30.0013 34.2274 30.0013H29.8314L30.2501 25.7108H35.0648C41.0308 25.7108 42.2867 27.5944 42.2867 32.3035V42.5589ZM56.9401 30.3152C54.2188 29.8966 53.4861 29.792 52.2301 29.792C49.9274 29.792 49.1948 30.3152 49.1948 32.3035V36.0708C49.1948 38.0591 49.9274 38.5823 52.2301 38.5823C53.4861 38.5823 54.3234 38.4776 56.9401 38.0591V42.2449C54.6374 42.7681 53.0674 42.8728 51.8114 42.8728C46.2641 42.8728 44.0661 39.9427 44.0661 35.7569V32.7221C44.0661 28.5362 46.2641 25.6061 51.8114 25.6061C53.0674 25.6061 54.6374 25.7108 56.9401 26.234V30.3152ZM73.1634 35.6522H63.7434V35.9661C63.7434 37.9544 64.4761 38.4776 66.7787 38.4776C68.8721 38.4776 70.1281 38.373 72.8494 37.9544V42.1403C70.2328 42.6635 68.9768 42.7681 66.3601 42.7681C60.8128 42.7681 58.6148 39.8381 58.6148 35.6522V32.1988C58.6148 28.5362 60.2894 25.5015 65.9414 25.5015C71.5934 25.5015 73.2681 28.5362 73.2681 32.1988V35.6522H73.1634ZM89.9101 35.7569C89.9101 39.8381 88.7588 42.7681 81.7461 42.7681C79.2341 42.7681 77.6641 42.5588 74.9428 42.1403V18.8041L80.0714 17.967V26.1294C81.2228 25.7108 82.5834 25.5015 83.9441 25.5015C89.0727 25.5015 90.0148 27.8037 90.0148 31.571V35.7569H89.9101ZM106.447 35.8615C106.447 39.4195 104.982 42.7681 98.9114 42.7681C92.8408 42.7681 91.3754 39.3148 91.3754 35.8615V32.4082C91.3754 28.8502 92.8408 25.5015 98.9114 25.5015C104.982 25.5015 106.447 28.9548 106.447 32.4082V35.8615ZM122.985 35.8615C122.985 39.4195 121.519 42.7681 115.449 42.7681C109.378 42.7681 107.913 39.3148 107.913 35.8615V32.4082C107.913 28.8502 109.378 25.5015 115.449 25.5015C121.519 25.5015 122.985 28.9548 122.985 32.4082V35.8615ZM139.941 42.5589H134.393L129.683 34.7104V42.5589H124.45V18.8041L129.579 17.967V33.2453L134.289 25.7108H139.836L134.707 33.8732L139.941 42.5589ZM115.449 29.792C113.669 29.792 113.041 30.7338 113.041 31.9896V36.3847C113.041 37.5358 113.669 38.5823 115.449 38.5823C117.228 38.5823 117.856 37.6405 117.856 36.3847V31.9896C117.856 30.7338 117.228 29.792 115.449 29.792ZM144.44 41.1926C144.44 40.3552 143.707 39.6226 142.87 39.6226C142.033 39.6226 141.3 40.2506 141.3 41.1926C141.3 42.0299 142.033 42.7626 142.87 42.7626C143.707 42.7626 144.44 42.1346 144.44 41.1926ZM141.614 41.1926C141.614 40.4599 142.137 39.8319 142.87 39.8319C143.603 39.8319 144.231 40.4599 144.126 41.1926C144.126 41.9252 143.603 42.5532 142.87 42.5532C142.137 42.5532 141.614 41.9252 141.614 41.1926ZM142.242 42.1346H142.556V41.4019H142.765C143.079 41.4019 143.184 41.5066 143.184 41.7159C143.184 41.8385 143.22 41.9252 143.25 41.9971C143.271 42.0478 143.289 42.0912 143.289 42.1346H143.603C143.603 42.1346 143.498 42.0299 143.498 41.7159C143.393 41.5066 143.289 41.2972 143.184 41.2972C143.393 41.2972 143.498 41.0879 143.498 40.8786C143.498 40.6692 143.393 40.5646 143.289 40.4599C143.25 40.4599 143.212 40.4459 143.163 40.4281C143.079 40.3973 142.964 40.3552 142.765 40.3552H142.242V42.1346ZM142.765 41.0879H142.556V40.4599H142.765C143.079 40.4599 143.184 40.6692 143.184 40.7739C143.184 40.9832 142.975 41.0879 142.765 41.0879Z" fill="white"/>
</svg>

<svg width="157" height="60" fill="none" xmlns="http://www.w3.org/2000/svg"><path fill-rule="evenodd" clip-rule="evenodd" d="M157 .486H0v59.02h157V.486zM82.583 29.792c-1.046 0-1.779.314-2.616.732v7.954c.732.104 1.151.104 1.884.104 2.512 0 2.826-1.15 2.826-2.72v-3.768c.104-1.36-.314-2.302-2.094-2.302zm-16.746-.419c-1.78 0-2.198.942-2.198 2.198v.628h4.291v-.628c0-1.256-.314-2.198-2.093-2.198zm-32.552 8.268c0 .941.42 1.465 1.466 1.465s1.674-.314 2.407-.733v-1.884h-2.303c-1.046 0-1.57.21-1.57 1.152zm65.626-7.849c-1.779 0-2.407.942-2.407 2.198v4.395c0 1.15.628 2.197 2.407 2.197 1.78 0 2.408-.941 2.408-2.197V31.99c0-1.256-.628-2.198-2.408-2.198zM24.703 42.559h-5.129V30.106h-2.617v-4.29h2.617v-2.617c0-3.558 1.465-5.65 5.547-5.65h3.454v4.29h-2.198c-1.57 0-1.674.628-1.674 1.674v2.198h3.872L28.157 30h-3.454v12.56zm17.584 0H38.1l-.21-1.047c-1.988 1.047-3.767 1.256-4.919 1.256-3.14 0-4.814-2.093-4.814-5.023 0-3.453 1.988-4.709 5.442-4.709h3.56v-.733c0-1.778-.21-2.302-2.932-2.302h-4.396l.42-4.29h4.814c5.966 0 7.222 1.883 7.222 6.593v10.255zM56.94 30.315c-2.721-.418-3.454-.523-4.71-.523-2.303 0-3.035.523-3.035 2.511v3.768c0 1.988.732 2.511 3.035 2.511 1.256 0 2.093-.104 4.71-.523v4.186c-2.303.523-3.873.628-5.129.628-5.547 0-7.745-2.93-7.745-7.116v-3.035c0-4.186 2.198-7.116 7.745-7.116 1.256 0 2.826.105 5.13.628v4.081zm16.223 5.337h-9.42v.314c0 1.988.733 2.512 3.036 2.512 2.093 0 3.35-.105 6.07-.524v4.186c-2.616.523-3.872.628-6.489.628-5.547 0-7.745-2.93-7.745-7.116V32.2c0-3.663 1.674-6.697 7.326-6.697 5.652 0 7.327 3.034 7.327 6.697v3.453h-.105zm16.747.105c0 4.081-1.151 7.011-8.164 7.011-2.512 0-4.082-.21-6.803-.628V18.804l5.128-.837v8.162c1.152-.418 2.512-.628 3.873-.628 5.129 0 6.07 2.303 6.07 6.07v4.186h-.104zm16.537.105c0 3.557-1.465 6.906-7.536 6.906-6.07 0-7.536-3.453-7.536-6.907v-3.453c0-3.558 1.466-6.907 7.536-6.907 6.071 0 7.536 3.454 7.536 6.907v3.453zm16.538 0c0 3.557-1.466 6.906-7.536 6.906-6.071 0-7.536-3.453-7.536-6.907v-3.453c0-3.558 1.465-6.907 7.536-6.907 6.07 0 7.536 3.454 7.536 6.907v3.453zm16.956 6.697h-5.548l-4.71-7.849v7.849h-5.233V18.804l5.129-.837v15.278l4.71-7.534h5.547l-5.129 8.162 5.234 8.686zm-24.492-12.767c-1.78 0-2.408.942-2.408 2.198v4.395c0 1.15.628 2.197 2.408 2.197 1.779 0 2.407-.941 2.407-2.197V31.99c0-1.256-.628-2.198-2.407-2.198zm28.991 11.4c0-.837-.733-1.57-1.57-1.57-.837 0-1.57.629-1.57 1.57 0 .838.733 1.57 1.57 1.57.837 0 1.57-.627 1.57-1.57zm-2.826 0c0-.732.523-1.36 1.256-1.36s1.361.628 1.256 1.36c0 .733-.523 1.361-1.256 1.361s-1.256-.628-1.256-1.36zm.628.943h.314v-.733h.209c.314 0 .419.105.419.314 0 .123.036.21.066.281.021.05.039.094.039.138h.314s-.105-.105-.105-.42c-.105-.208-.209-.418-.314-.418.209 0 .314-.21.314-.418 0-.21-.105-.314-.209-.42a.393.393 0 0 1-.126-.03 1.038 1.038 0 0 0-.398-.074h-.523v1.78zm.523-1.047h-.209v-.628h.209c.314 0 .419.21.419.314 0 .21-.209.314-.419.314z" fill="#fff"/></svg>
